X: 21391
T: the BOTTOM OF THE PUNCH BOWL
Q: "Lively"
%R: reel
B: "Edinburgh Repository of Music" v.2 p.139 #1
F: http://digital.nls.uk/special-collections-of-printed-music/pageturner.cfm?id=87776133
Z: 2015 John Chambers <jc:trillian.mit.edu>
N: Bar 7: The A needs a natural sign.
M: C|
L: 1/8
K: D
FE |\
D2D2 d3e | d2D2 FG AF | E2E2 efgf | e2E2 FGAF |\
D2D2 d3e | fedB d3A | {^A}B3G {^G}A3E | F2D2 D2 :|
|: de |\
fedB ABde | fedB d3B | A3B ABde | f2e2 e2de |\
fedB ABde | fedB d3A | B3G A3E | F2D2 D2 :|
